X: 153
T: Barley Broth, a Jig
C: attr. John French (1753-1803)
R: jig
B: "John French Collection", John French ed. p.15 #1
S: http://www.heallan.com/french.asp
Z: 2012 John Chambers <jc:trillian.mit.edu>
M: 6/8
L: 1/8
K: Em
B, |\
(EFE) BGE | eGE GAB | (B/^c/d)(B A)dG | FED AFD |\
(EFE) BGE | eGE GAB | (B/c/d)B AFD | E3 e2 :|
f |\
(e/f/g)(f e)de | Bef gfe | (d/^c/B/c/d) AdG | FED AFD |\
(e/f/g)(f e)de | Bef gfe | d^cd AFD | E3 e2 ||
f |\
(e/f/g)(f e)de | Bef gfe | (d/^c/B/c/d) AdG | FED AFD |\
EGE FAF | GBG AB^c | d^cd AFD | E3 e2 |]

%%sep 2 1 500
%%sep 1 1 500

